X:39
T:Syngogue. JJo8.039, The
%%VWML:JohnsonVol8-2184-p20-0
F:http://www.vwml.org/record/JohnsonVol8/2184/p20
Z:Transcribed by Simon Furey and Lewis Jones
Z:vmp.Simon Wilson 2013 www.village-music-project.org.uk
Z:Dance added by John Chambers 2017
M:C|
L:1/8
%Q:1/2=90
K:G
|:\
gdBG BGBG | edcBA2D2 | gdBG BGBG | edcBA4 |
b4a2g2 | fgef d^cBA | b4a2g2 | fgefd4 :|
|:\
d=cBc dcBc | d2=f2e2c2 | edcd edcd | e2g2f2d2 |
g4d2c2 | BcAB GFED | g4d2c2 | BcABG4 :|
W: First Man turn the 2d Wo. then take his Partner
W:by the right hand foot and cast off || the
W:1st Wo. do the same foot and cst up 1st Cu. lead
W:thro' the 3d Cu. the 2d Cu. follow and turn your
W:Partner at top hand round four half Way
W:hands across back again and cast off.
W:
T:Plumb Pudding. JJo8.040
B:J.Johnson Choice Collection Vol 8 1758
Z:vmp.Simon Wilson 2013 www.village-music-project.org.uk
Z:Dance added by John Chambers 2017
M:2/4
L:1/8
%Q:1/2=90
K:Bb
|:\
B2((3dcB) | gedc | B2((3dcB) | AFAF |\
B2((3dcB) | gedc | ((3def) ((3dcB) | c2B2 :|
|:\
B2((3dcB) | bBbB | B2((3dcB) | AFAF |\
B2((3dcB) | gedc | ((3def) ((3dcB) | c2B2 :|
W: Foot it across and turh :||:
W:gallop down one Cu. up again
W:cast off :||. Right and
W:Left at Top :||: turn Corners
W::||. Lead thro' Bottom and
W:Top turn your Partner :||:
W:
